X: 17438
T: Highland President
R: strathspey
M: 4/4
K: Gminor
F|D/G3/2G3/2F/ G3/2A/ Bc/B/|A/F3/2c/F3/2 d/F3/2 d/c/B/A/|
G/D3/2D3/2C/ B,3/2A,/ G,d/c/|c/B/A/G/ B/A/G/^F/ G2 G,3/2=F/|
D/G3/2G3/2F/ G3/2A/ Bc/B/|A/F3/2c/F3/2 d/F3/2 d/c/B/A/|
G/A/B/G/ A/B/c/A/ B/c/d/B/ c/d/e/g/|^f/d/c/d/ B/c/ A/B/ {F}~G2 G,||
B|G/g3/2g3/2d/ B3/2d/ Gg/a/|b/g/d/g/ B/d/G/B/ D/G/B,/D/ G,/B,/D/G/|
F/f3/2f3/2c/ A3/2c/ Ff/g/|a/f/c/f/ A/c/F/A/ C/F/ A,/C/ F/A/c/f/|
G/g3/2g3/2d/4c/4 B/d3/2G3/2A/4G/4|F/f3/2f3/2c/4B/4 A/c3/2F3/2B/4A/4|
G/A/B/G/ A/B/c/A/ B/c/d/B/ c/d/e/g/|^f/d/c/d/ B/c/ A/B/ {F}~G2 G,||

